icons/Crystal-Dark.svg

<svg width="256" height="256" viewBox="0 0 256 256" fill="none" xmlns="http://www.w3.org/2000/svg">
<rect width="256" height="256" rx="60" fill="#242938"/>
<path d="M155.26 226.052L226.479 154.975C226.764 154.69 226.907 154.405 226.622 153.978L200.555 56.8344C200.555 56.5495 200.271 56.2647 199.843 56.1222L102.557 30.0559C102.272 29.9134 101.845 30.0559 101.56 30.3408L30.3408 101.418C30.0559 101.703 29.9134 101.988 30.0559 102.415L56.2647 199.558C56.2647 199.843 56.5495 200.128 56.9769 200.271L154.263 226.337C154.548 226.479 154.975 226.337 155.26 226.052Z" fill="black" stroke="white" stroke-width="5" stroke-linecap="round"/>
<path d="M105.691 173.207L35.4688 103.127L131.33 77.7729L105.691 173.207Z" fill="white"/>
</svg>

<svg xmlns="http://www.w3.org/2000/svg" width="256" height="256" fill="none" viewBox="0 0 256 256"><rect width="256" height="256" fill="#242938" rx="60"/><path fill="#000" stroke="#fff" stroke-linecap="round" stroke-width="5" d="m155.26 226.05 71.22-71.08c.28-.28.43-.56.14-1l-26.06-97.14c0-.28-.29-.57-.72-.7l-97.28-26.07c-.29-.15-.72 0-1 .28l-71.22 71.08c-.28.28-.43.57-.28 1l26.2 97.14c0 .28.29.57.72.71l97.28 26.07c.29.14.72 0 1-.29Z"/><path fill="#fff" d="m105.7 173.2-70.23-70.07 95.86-25.36z"/></svg>
